X: 3354
T: Below The Archway
R: reel
M: 4/4
K: Bminor
F~B3 edcA|dedB AFFE|FBBA Bcde|cAce afge|
fdBA ~B3f|ecAB cdec|dafd efga|1 fded c2BA:|2 fded c2de||
adda agfg|~e3f gfed|~B3d cFGA|BGBd eAce|
a~d3 agfg|~e3f gfed|B2FB AFFE|1 FBBA decd:|2 FBBA BAGA||

